src/main/webapp/resources/showcase/images/whouses/nike.svg

<?xml version="1.0" encoding="UTF-8"?>
<svg width="118px" height="42px" viewBox="0 0 118 42" version="1.1" xmlns="http://www.w3.org/2000/svg" xmlns:xlink="http://www.w3.org/1999/xlink">
    <!-- Generator: Sketch 54.1 (76490) - https://sketchapp.com -->
    <title>logo-nike</title>
    <desc>Created with Sketch.</desc>
    <g id="Page-1" stroke="none" stroke-width="1" fill="none" fill-rule="evenodd">
        <g id="logo-nike" fill="#FFFFFF" fill-rule="nonzero">
            <path d="M12.9994054,41.9829277 C9.48805129,41.8434356 6.61523455,40.8826233 4.36892996,39.0980858 C3.94023211,38.7571718 2.91869263,37.7350311 2.57597486,37.3039282 C1.66506708,36.1585293 1.04577004,35.0437946 0.632704933,33.8070043 C-0.638357139,29.9998307 0.0158129338,25.0039675 2.50382375,19.5210843 C4.6340853,14.8270533 7.92116966,10.1715029 13.6559805,3.72359859 C14.5007497,2.77481148 17.0164185,0 17.0326525,0 C17.0386651,0 16.9015779,0.237497407 16.7290165,0.52670311 C15.2378936,3.02433407 13.9620214,5.96629562 13.2669657,8.51322984 C12.1504273,12.599989 12.2851094,16.1071343 13.6613918,18.8266299 C14.6107802,20.7001537 16.238389,22.3229525 18.0686222,23.2200313 C21.2727328,24.7899192 25.9637575,24.9197912 31.6925557,23.6000272 C32.0869818,23.5086357 51.6315152,18.3203696 75.1251195,12.0702796 C98.6187238,5.81958836 117.843989,0.709485925 117.846995,0.71369474 C117.853609,0.719106073 63.2646794,24.0780283 34.9267293,36.1964086 C30.4389302,38.1150269 29.2388167,38.5996419 27.1289979,39.3403933 C21.7357024,41.2343599 16.9045842,42.1380526 12.9994054,41.9829277 Z"></path>
        </g>
    </g>
</svg>

<svg width="118" height="42" xmlns="http://www.w3.org/2000/svg"><path d="M13 41.983c-3.512-.14-6.385-1.1-8.631-2.885-.429-.34-1.45-1.363-1.793-1.794-.91-1.145-1.53-2.26-1.943-3.497C-.638 30 .016 25.004 2.503 19.521c2.131-4.694 5.418-9.35 11.153-15.797.845-.95 3.36-3.724 3.377-3.724.006 0-.131.237-.304.527-1.491 2.497-2.767 5.44-3.462 7.986-1.117 4.087-.982 7.594.394 10.314.95 1.873 2.577 3.496 4.408 4.393 3.204 1.57 7.895 1.7 13.624.38.394-.091 19.939-5.28 43.432-11.53C98.62 5.82 117.844.71 117.847.714c.007.005-54.582 23.364-82.92 35.482-4.488 1.919-5.688 2.404-7.798 3.144-5.393 1.894-10.224 2.798-14.13 2.643z" fill="#FFF"/></svg>
